assets/images/landing-4.svg

<svg width="116" height="209" viewBox="0 0 116 209" fill="none" xmlns="http://www.w3.org/2000/svg">
<path d="M40.7861 35.7804C50.0678 35.7804 57.5921 28.2561 57.5921 18.9744C57.5921 9.69275 50.0678 2.16846 40.7861 2.16846C31.5044 2.16846 23.9801 9.69275 23.9801 18.9744C23.9801 28.2561 31.5044 35.7804 40.7861 35.7804Z" fill="#2F2E41"/>
<path d="M103.465 80.5122C103.143 80.9965 102.751 81.4301 102.301 81.7984C101.652 82.333 100.898 82.7246 100.088 82.9474C99.2776 83.1703 98.4294 83.2194 97.5988 83.0915C96.7682 82.9637 95.974 82.6618 95.2683 82.2056C94.5625 81.7494 93.9611 81.1493 93.5035 80.4444C93.3975 80.2802 93.3003 80.1105 93.2122 79.936L66.7294 77.381C64.6393 77.1713 62.6725 76.2933 61.1209 74.8772C59.5694 73.4612 58.5158 71.5826 58.1166 69.5203L56.6134 61.5959L66.9488 59.988L68.8034 66.3355L94.6239 72.678C94.8239 72.5025 95.0359 72.3412 95.2584 72.1954C96.4102 71.448 97.7846 71.1208 99.1497 71.269C100.515 71.4173 101.787 72.032 102.751 73.0093C103.716 73.9866 104.313 75.2668 104.443 76.6337C104.574 78.0006 104.228 79.3705 103.465 80.5122L103.465 80.5122Z" fill="#AE6E79"/>
<path d="M69.4382 65.3774L57.8931 68.4962C57.2685 68.6642 56.6027 68.5775 56.0419 68.2553C55.4811 67.933 55.0711 67.4015 54.9017 66.7773L50.858 51.8081C50.4248 50.2047 50.6006 48.4976 51.3515 47.0161C52.1024 45.5347 53.3752 44.3837 54.9245 43.7851C56.4738 43.1865 58.1899 43.1827 59.7418 43.7745C61.2937 44.3662 62.5716 45.5116 63.329 46.9898L70.9733 61.9098C71.139 62.2333 71.2304 62.5897 71.2408 62.9531C71.2511 63.3164 71.1801 63.6775 71.033 64.0098C70.8858 64.3422 70.6663 64.6375 70.3904 64.8741C70.1145 65.1107 69.7891 65.2827 69.4382 65.3774Z" fill="#0070C7"/>
<path d="M62.7506 202.828H69.3966L72.5588 177.192L62.749 177.192L62.7506 202.828Z" fill="#AE6E79"/>
<path d="M82.2151 208.999L61.3265 209L61.3261 200.929L74.1441 200.929C76.2846 200.929 78.3374 201.779 79.851 203.292C81.3646 204.806 82.215 206.859 82.2151 208.999Z" fill="#094067"/>
<path d="M3.51233 196.351L9.73054 198.698L21.7452 175.832L12.568 172.368L3.51233 196.351Z" fill="#AE6E79"/>
<path d="M19.5421 209L2.30327e-05 201.621L2.85083 194.071L14.8425 198.599C16.845 199.355 18.4651 200.876 19.3464 202.826C20.2278 204.777 20.2981 206.997 19.5421 209L19.5421 209Z" fill="#094067"/>
<path d="M62.5407 196.874C62.0255 196.873 61.5237 196.71 61.1073 196.406C60.6908 196.103 60.3812 195.675 60.2228 195.185L43.2712 142.835C43.221 142.68 43.1252 142.543 42.9964 142.443C42.8676 142.343 42.7117 142.284 42.5489 142.274C42.3861 142.263 42.224 142.302 42.0836 142.385C41.9431 142.468 41.8309 142.592 41.7614 142.739L18.2686 192.724C18.0141 193.264 17.5704 193.693 17.0214 193.928C16.4724 194.163 15.8562 194.189 15.2894 194.001L6.03695 190.917C5.44929 190.719 4.95844 190.306 4.66377 189.761C4.36909 189.216 4.2926 188.579 4.44975 187.979L18.8402 133.47C20.346 127.696 21.4337 121.821 22.0949 115.89C23.104 106.125 27.6825 97.0753 34.9524 90.4771C38.1267 87.5689 40.1901 83.6468 40.7889 79.3836L40.8277 79.111L61.9023 82.4384L75.2514 191.368C75.3204 191.95 75.1779 192.539 74.8499 193.025C74.5219 193.512 74.0302 193.865 73.464 194.019L63.1778 196.789C62.9701 196.845 62.7559 196.874 62.5407 196.874Z" fill="#094067"/>
<path d="M47.4623 35.7005C54.8161 35.7005 60.7776 29.7391 60.7776 22.3853C60.7776 15.0315 54.8161 9.07007 47.4623 9.07007C40.1085 9.07007 34.1471 15.0315 34.1471 22.3853C34.1471 29.7391 40.1085 35.7005 47.4623 35.7005Z" fill="#AE6E79"/>
<path d="M60.2095 85.5648C60.1678 85.5648 60.1261 85.5637 60.084 85.5616L39.1927 84.5171C38.6095 84.4908 38.0555 84.2551 37.6321 83.8533C37.2086 83.4515 36.9443 82.9104 36.8875 82.3295L34.0335 54.5031C33.8246 52.4653 34.1172 50.4074 34.8857 48.5085C35.6543 46.6097 36.8755 44.9277 38.443 43.609C40.0106 42.2902 41.8768 41.3749 43.8791 40.9426C45.8814 40.5103 47.9591 40.5742 49.931 41.1288H49.9312C51.5649 41.5762 53.0873 42.3594 54.4013 43.4283C69.0974 55.4973 64.3588 77.3646 62.5564 83.7791C62.4152 84.2929 62.1089 84.746 61.6848 85.0687C61.2608 85.3913 60.7424 85.5657 60.2095 85.5648Z" fill="#0070C7"/>
<path d="M42.4177 103.446C41.836 103.446 41.2576 103.359 40.7016 103.189C39.8973 102.945 39.1536 102.534 38.5193 101.983C37.8849 101.432 37.3742 100.753 37.0205 99.9904C36.6669 99.2281 36.4783 98.3996 36.4672 97.5593C36.456 96.719 36.6226 95.8859 36.9559 95.1144C37.0339 94.9352 37.1214 94.7603 37.2178 94.5903L24.6756 71.1263C23.6923 69.27 23.3339 67.1462 23.6534 65.07C23.9729 62.9939 24.9534 61.0761 26.4493 59.6013L32.2141 53.9603L39.2778 61.6745L35.0205 66.7348L44.0426 91.7452C44.2995 91.8145 44.5512 91.9017 44.7959 92.0062C46.0562 92.5511 47.0899 93.5141 47.7226 94.7327C48.3553 95.9513 48.5482 97.3509 48.2687 98.6952C47.9892 100.04 47.2545 101.246 46.1886 102.112C45.1227 102.977 43.7908 103.449 42.4177 103.446L42.4177 103.446Z" fill="#AE6E79"/>
<path d="M36.1698 66.7326L27.1781 58.8481C26.6922 58.4211 26.3956 57.8189 26.3533 57.1735C26.3109 56.5281 26.5263 55.8922 26.9522 55.4054L37.1751 43.747C38.2701 42.4981 39.7887 41.699 41.4381 41.5035C43.0874 41.3081 44.7507 41.7302 46.1073 42.6885C47.4639 43.6468 48.4176 45.0734 48.7845 46.6933C49.1515 48.3132 48.9058 50.0115 48.0947 51.4609L39.9071 66.0899C39.7296 66.4071 39.4835 66.6806 39.1867 66.8905C38.89 67.1003 38.55 67.2412 38.1918 67.3028C37.8336 67.3644 37.4661 67.3452 37.1163 67.2466C36.7664 67.1479 36.4431 66.9723 36.1698 66.7326V66.7326Z" fill="#0070C7"/>
<path d="M38.894 35.3193C40.1089 35.7501 41.5983 36.1299 42.5543 35.2365C43.4876 34.3642 43.3175 32.7692 42.7677 31.5942C42.218 30.4191 41.3653 29.3734 41.1038 28.0944C40.7291 26.2615 41.6979 24.3571 43.0808 23.1621C44.4637 21.9671 46.2044 21.3393 47.9038 20.7352L57.2247 17.4219C59.5319 16.6017 62.0181 15.6383 63.3092 13.4799C65.1774 10.357 63.4695 5.89282 60.4051 4.07049C57.3408 2.24816 53.4701 2.58765 50.1639 3.86903C48.3353 4.57773 46.5959 5.55432 44.7048 6.05321C40.9727 7.0378 36.7291 6.15452 33.4494 8.25885C30.5945 10.0907 29.2703 13.8283 29.3664 17.3256C29.4626 20.8228 30.7503 24.1534 32.1085 27.3518C32.9165 29.2547 33.7797 31.1794 35.1484 32.6928C36.5171 34.2063 38.4949 35.265 40.4706 34.9865L38.894 35.3193Z" fill="#2F2E41"/>
<path d="M26.6907 21.6851C32.6789 21.6851 37.5333 16.8308 37.5333 10.8426C37.5333 4.85438 32.6789 0 26.6907 0C20.7025 0 15.8481 4.85438 15.8481 10.8426C15.8481 16.8308 20.7025 21.6851 26.6907 21.6851Z" fill="#2F2E41"/>
<path d="M114.63 73.4315L114.438 73.4051L115.162 68.1341C115.274 67.325 115.059 66.5048 114.565 65.854C114.072 65.2033 113.34 64.7752 112.531 64.6639L101.363 63.1288C100.554 63.0176 99.7342 63.2323 99.0834 63.7258C98.4326 64.2193 98.0045 64.9511 97.8933 65.7602L93.9182 94.6776C93.8069 95.4867 94.0217 96.3069 94.5152 96.9577C95.0087 97.6084 95.7405 98.0365 96.5496 98.1478L107.717 99.6829C108.526 99.7941 109.346 99.5794 109.997 99.0859C110.648 98.5924 111.076 97.8606 111.187 97.0515L113.922 77.157L114.115 77.1835L114.63 73.4315Z" fill="#094067"/>
<path d="M112.18 66.2103L110.79 66.0192C110.832 66.1847 110.833 66.3582 110.793 66.5242C110.752 66.6903 110.672 66.8439 110.558 66.9714C110.444 67.0989 110.301 67.1965 110.14 67.2556C109.98 67.3147 109.807 67.3334 109.638 67.3101L103.536 66.4712C103.366 66.4479 103.205 66.3834 103.067 66.2832C102.928 66.1831 102.817 66.0504 102.742 65.8969C102.666 65.7434 102.63 65.5738 102.636 65.403C102.642 65.2322 102.69 65.0654 102.775 64.9175L101.477 64.7389C101.191 64.6997 100.901 64.7171 100.622 64.79C100.344 64.863 100.082 64.9901 99.8525 65.1642C99.6229 65.3383 99.4299 65.5558 99.2845 65.8045C99.139 66.0531 99.044 66.328 99.0048 66.6133L95.2186 94.1558C95.1394 94.7321 95.2924 95.3163 95.6439 95.7799C95.9954 96.2435 96.5167 96.5484 97.093 96.6276L107.796 98.099C108.373 98.1782 108.957 98.0252 109.421 97.6737C109.884 97.3222 110.189 96.8009 110.268 96.2246L114.054 68.6821C114.134 68.1057 113.981 67.5215 113.629 67.058C113.278 66.5944 112.756 66.2895 112.18 66.2103V66.2103Z" fill="#FAFAFA"/>
<path d="M104.589 89.0771C107.883 89.0771 110.552 86.4072 110.552 83.1137C110.552 79.8202 107.883 77.1503 104.589 77.1503C101.296 77.1503 98.6256 79.8202 98.6256 83.1137C98.6256 86.4072 101.296 89.0771 104.589 89.0771Z" fill="#0070C7"/>
<path fill-rule="evenodd" clip-rule="evenodd" d="M101.827 84.8605C102.404 85.6835 103.995 86.8997 105.638 85.7417C107.282 84.5837 107.58 80.8074 107.58 80.8074C107.58 80.8074 103.99 79.8927 102.346 81.0508C100.703 82.2088 101.133 83.873 101.827 84.8605ZM103.284 84.2002C103.574 84.0201 104.32 83.6949 104.986 83.8341C105.653 83.9733 105.839 83.8141 105.925 83.6519C106.118 83.2894 106.015 82.721 105.117 82.2433C104.22 81.7655 102.98 82.0004 102.536 82.7874C102.181 83.417 102.527 83.9289 102.745 84.1061C102.814 84.1566 103.03 84.3144 103.284 84.2002Z" fill="#FAFAFA"/>
</svg>

<svg width="116" height="209" fill="none" xmlns="http://www.w3.org/2000/svg"><path d="M40.786 35.78c9.282 0 16.806-7.524 16.806-16.806 0-9.281-7.524-16.806-16.806-16.806S23.98 9.693 23.98 18.974c0 9.282 7.524 16.806 16.806 16.806z" fill="#2F2E41"/><path d="M103.465 80.512a5.972 5.972 0 01-5.866 2.58 5.963 5.963 0 01-4.096-2.648 5.545 5.545 0 01-.29-.508l-26.484-2.555a9.766 9.766 0 01-8.612-7.86l-1.504-7.925 10.336-1.608 1.854 6.347 25.82 6.343c.2-.175.413-.337.635-.483a5.966 5.966 0 018.207 8.317z" fill="#AE6E79"/><path d="M69.438 65.377l-11.545 3.12a2.443 2.443 0 01-2.991-1.72l-4.044-14.969a6.722 6.722 0 0112.471-4.818l7.644 14.92a2.442 2.442 0 01-1.535 3.467z" fill="#0070C7"/><path d="M62.75 202.828h6.647l3.162-25.636h-9.81l.002 25.636z" fill="#AE6E79"/><path d="M82.215 208.999L61.326 209v-8.071h12.818a8.072 8.072 0 018.071 8.07z" fill="#094067"/><path d="M3.512 196.351l6.219 2.347 12.014-22.866-9.177-3.464-9.056 23.983z" fill="#AE6E79"/><path d="M19.542 209L0 201.621l2.85-7.55 11.992 4.528a8.072 8.072 0 014.7 10.401zM62.54 196.874a2.438 2.438 0 01-2.317-1.689l-16.952-52.35a.814.814 0 00-1.51-.096L18.27 192.724a2.442 2.442 0 01-2.98 1.277l-9.252-3.084a2.45 2.45 0 01-1.587-2.938l14.39-54.509a124.19 124.19 0 003.255-17.58 39.852 39.852 0 0112.857-25.413 18.543 18.543 0 005.837-11.093l.039-.273 21.074 3.327 13.35 108.93a2.449 2.449 0 01-1.788 2.651l-10.286 2.77a2.448 2.448 0 01-.637.085z" fill="#094067"/><path d="M47.462 35.7c7.354 0 13.316-5.96 13.316-13.315 0-7.354-5.962-13.315-13.316-13.315-7.354 0-13.315 5.961-13.315 13.315 0 7.354 5.962 13.315 13.315 13.315z" fill="#AE6E79"/><path d="M60.21 85.565l-.126-.003-20.891-1.045a2.426 2.426 0 01-2.305-2.188l-2.855-27.826A12.564 12.564 0 0149.931 41.13a12.183 12.183 0 014.47 2.3c14.696 12.068 9.958 33.936 8.155 40.35a2.43 2.43 0 01-2.346 1.786z" fill="#0070C7"/><path d="M42.418 103.446a5.971 5.971 0 01-5.397-3.456 5.965 5.965 0 01-.065-4.876c.078-.179.165-.354.262-.524L24.676 71.126a9.765 9.765 0 011.773-11.525l5.765-5.64 7.064 7.714-4.258 5.06 9.023 25.01c.257.07.508.157.753.261a5.965 5.965 0 01-2.378 11.44z" fill="#AE6E79"/><path d="M36.17 66.733l-8.992-7.885a2.442 2.442 0 01-.226-3.443l10.223-11.658a6.722 6.722 0 0110.92 7.714L39.907 66.09a2.44 2.44 0 01-3.737.643z" fill="#0070C7"/><path d="M38.894 35.32c1.215.43 2.704.81 3.66-.084.934-.872.764-2.467.214-3.642-.55-1.175-1.403-2.22-1.664-3.5-.375-1.832.594-3.737 1.977-4.932 1.383-1.195 3.123-1.823 4.823-2.427l9.32-3.313c2.308-.82 4.794-1.784 6.085-3.942 1.868-3.123.16-7.587-2.904-9.41-3.064-1.822-6.935-1.482-10.241-.201-1.829.709-3.568 1.685-5.46 2.184-3.731.985-7.975.102-11.255 2.206-2.854 1.832-4.179 5.57-4.083 9.067.097 3.497 1.384 6.827 2.742 10.026.809 1.903 1.672 3.827 3.04 5.34 1.37 1.514 3.347 2.573 5.323 2.294l-1.577.333z" fill="#2F2E41"/><path d="M26.69 21.685c5.989 0 10.843-4.854 10.843-10.842C37.533 4.854 32.68 0 26.691 0S15.848 4.854 15.848 10.843c0 5.988 4.854 10.842 10.843 10.842z" fill="#2F2E41"/><path d="M114.63 73.431l-.192-.026.724-5.27a3.078 3.078 0 00-2.631-3.47l-11.168-1.536a3.079 3.079 0 00-3.47 2.631l-3.975 28.918a3.08 3.08 0 002.632 3.47l11.167 1.535a3.08 3.08 0 003.47-2.632l2.735-19.894.193.026.515-3.752z" fill="#094067"/><path d="M112.18 66.21l-1.39-.19a1.052 1.052 0 01-.232.951 1.042 1.042 0 01-.92.34l-6.102-.84a1.037 1.037 0 01-.794-.574 1.03 1.03 0 01.033-.98l-1.298-.178a2.198 2.198 0 00-2.193 1.066c-.145.248-.24.523-.28.808L95.22 94.156a2.194 2.194 0 001.874 2.472l10.703 1.471a2.196 2.196 0 002.472-1.874l3.786-27.543a2.193 2.193 0 00-1.874-2.472z" fill="#FAFAFA"/><path d="M104.589 89.077a5.963 5.963 0 005.963-5.963 5.963 5.963 0 10-11.926 0 5.964 5.964 0 005.963 5.963z" fill="#0070C7"/><path fill-rule="evenodd" clip-rule="evenodd" d="M101.827 84.86c.577.823 2.168 2.04 3.811.882 1.644-1.158 1.942-4.935 1.942-4.935s-3.59-.914-5.234.244c-1.643 1.158-1.213 2.822-.519 3.81zm1.457-.66c.29-.18 1.036-.505 1.702-.366.667.14.853-.02.939-.182.193-.363.09-.931-.808-1.409-.897-.477-2.137-.243-2.581.544a1.024 1.024 0 00.209 1.32c.069.05.285.207.539.093z" fill="#FAFAFA"/></svg>
